X: 42
T: Piano Sonata No. 10 in C major, K 330 (300h), mvmt. 3
C: Wolfgang Amadeus Mozart
%%abc-version 2.0
%%abcx-abcm2ps-target-version 5.9.1 (29 Sep 2008)
%%abc-creator hum2abc beta
%%abcx-conversion-date 2021/01/14 17:01:33
%%abc-copyright 2018 Craig Stuart Sapp
%%abc-edited-by Craig Stuart Sapp
%%abc-edited-by Craig Stuart Sapp
%%abcx-initial-encoding-date 2009/10/08
%%gracespace 0 6 6
%%humdrum-veritas 1385285511
%%humdrum-veritas-data 3532424628
%%linebreak <none>
%%barnumbers 0
L: 1/16
M: 2/4
N: Derived from sonata10-3.krn
Q: "Allegretto" 1/4=112
%%staves {1 2}
V: 1 clef=treble
V: 2 clef=bass
K: C
[V:1] e3f/g/ c2.[B2d2] | 
[V:2] z2 C,2E,2G,2 | 
[V:1] d2fex4 & B2c2[B4d4] | 
[V:2] C2C,2 G,2G,,2 | 
[V:1] e3f/g/ c2.[B2d2] | 
[V:2] z2 C,2E,2G,2 | 
[V:1] [d2f2][c2e2][B4d4] | 
[V:2] C2C,2 G,2G,,2 | 
[V:1] f3g/f/ e2.e2 | 
[V:2] A,2C2G,2C2 | 
[V:1] a3b/c'/ g2.g2 | 
[V:2] F,2C2E,2C2[K:clef=treble] | 
[V:1] gffd feec | 
[V:2] z2 [B,2G2] z2 [C2G2][K:clef=bass] | 
[V:1] ^cded =cBAG | 
[V:2] [G,4B,4]z4 | 
[V:1] e3f/g/ c2.[B2d2] | 
[V:2] C,,E,,G,,C, E,,E,G,,G, | 
[V:1] d2fex4 & B2c2[B4d4] | 
[V:2] C,E,G,C G,,B,,D,G, | 
[V:1] e3f/g/ c2.[B2d2] | 
[V:2] C,,E,,G,,C, E,,E,G,,G, | 
[V:1] [d2f2][c2e2][B4d4] | 
[V:2] C,E,G,C G,,B,,D,G, | 
[V:1] f3g/f/ e2.e2 | 
[V:2] A,CA,C G,CG,C | 
[V:1] a3b/c'/ g2.g2 | 
[V:2] F,CF,C E,CE,C | 
[V:1] ^gafd c2B2 | 
[V:2] z2 D2 E2D2 & x2 F,2G,4 | 
[V:1] (3cGe (3cge (3c'ba (3gfe | 
[V:2] [C4E4]z4 | 
[V:1] (3^cdf (3afd (3ge=c (3fdB | 
[V:2] z2 [A,2D2] [C2E2][D2F2] & x2 F,2G,4 | 
[V:1] (3cGe (3cge (3c'ba (3gfe | 
[V:2] [C4E4]z4 | 
[V:1] (3^cdf (3afd (3ge=c (3fdB | 
[V:2] z2 [A,2D2] [C2E2][D2F2] & x2 F,2G,4 | 
[V:1] c2.G2C4 | 
[V:2] [C2E2].G,2[C,,4C,4][K:clef=treble] | 
[V:1] e6{/f/e/d/e/} gf | 
[V:2] CG^FG CGDG | 
[V:1] edcB .c2.^c2 | 
[V:2] EG=FG EG^A,G | 
[V:1] .d2.^d2.e2 gf | 
[V:2] B,GB,G CGDG | 
[V:1] e3f/e/ =d2 z2 | 
[V:2] CG^FG B,GFG | 
[V:1] f6{/g/f/e/f/} ag | 
[V:2] B,G^FG B,GCG | 
[V:1] fedc B.c.d.e | 
[V:2] DGEG =FGDG | 
[V:1] .f.g.a.b .c'.d'.e'.f' | 
[V:2] B,GDG B,GG,G | 
[V:1] ^d'4e'2 z2 | 
[V:2] CGEG CGEG | 
[V:1] e2-(3eac' (3e'c'a (3c'ae | 
[V:2] (3CEAc2z4 | 
[V:1] d2-(3dgb (3d'bg (3bgd | 
[V:2] (3B,DGB2z4[K:clef=bass] | 
[V:1] (3z da (3c'ad (3z dg (3bgd | 
[V:2] [^F,2A,2D2] z2 [G,2B,2D2] z2 | 
[V:1] a>^fd2z4 | 
[V:2] D,D^CD CD=CD | 
[V:1] {/G//}g4-g^fed | 
[V:2] B,DG,D B,DG,D | 
[V:1] dcBA .d2.c2 | 
[V:2] A,DG,D ^F,DD,D | 
[V:1] ^A2B2z4 | 
[V:2] G,D^CD CDED | 
[V:1] z8 | 
[V:2] =CDB,D CDA,D | 
[V:1] {/G//}g4-g^fed | 
[V:2] B,DG,D B,DG,D | 
[V:1] dcBA .d2.c2 | 
[V:2] A,DG,D ^F,DD,D | 
[V:1] .B2 z2 !trill!e>^fg.g | 
[V:2] G,DB,D G,ECE | 
[V:1] g2 z2 !trill!a>bc'.c' | 
[V:2] G,DB,D =F,CA,C | 
[V:1] c'2 z2 !trill!c'>d'e'.e' | 
[V:2] E,CG,C C,G,E,G, | 
[V:1] e'd'.c'.b .a2.d'2 | 
[V:2] D,B,G,B, D,C^F,C | 
[V:1] c'2b2 !trill!e>^fg.g | 
[V:2] G,DB,D G,ECE | 
[V:1] g2 z2 !trill!a>bc'c' | 
[V:2] G,DB,D =F,CA,C | 
[V:1] c'2 z2 !trill!c'>d'e'.e' | 
[V:2] E,CG,C C,G,E,G, | 
[V:1] e'd'.c'.b ba.g.^f | 
[V:2] D,B,G,B, D,CA,C | 
[V:1] d'2-(3d'bg (3^fad (3gbd | 
[V:2] z2 [G,2B,2][A,2C2][B,2D2] | 
[V:1] a2-(3a^fd (3^cdA (3=cdA | 
[V:2] z2 [D,2^F,2][E,2G,2][F,2A,2] | 
[V:1] d'2-(3d'bg (3^fad (3gbd | 
[V:2] z2 [G,2B,2][A,2C2][B,2D2] | 
[V:1] a2-(3a^fd (3^cdA (3=cdA | 
[V:2] z2 [D,2^F,2][E,2G,2][F,2A,2] | 
[V:1] (3BGB (3dBd (3gdg (3bgb | 
[V:2] G,4z4 | 
[V:1] (3d'bd' (3=f'd'b (3g=fd (3BG=F | 
[V:2] [G,,8B,,8D,8G,8-] | 
[V:1] Ee^de dede | 
[V:2] [C,4G,4]z4 | 
[V:1] G6BA & x6^F2 | 
[V:2] z2 _B,2=B,2=C2 & x2 ^C,2D,4 | 
[V:1] (3BGB (3dBd (3gdg (3bgb | 
[V:2] B,4z4 & G,4z4 | 
[V:1] (3d'bd' (3=f'd'b (3g=fd (3BG=F | 
[V:2] [G,,8B,,8D,8G,8-] | 
[V:1] Ee^de dede | 
[V:2] [C,4G,4]z4 | 
[V:1] z g^fg fgfg | 
[V:2] [^C,4_B,4]z4 | 
[V:1] gd.d.d edc.B | 
[V:2] D,=B,G,B, D,B,G,B, | 
[V:1] B4!trill!A3G/A/ | 
[V:2] D,DG,D D,C^F,C[K:clef=treble] | 
[V:1] G2 z2 d3{/^f//}e/d/ | 
[V:2] G,B,GB, G,B,GB, | 
[V:1] .d'2.c'2.b2.a2 | 
[V:2] G,A,^FA, G,CFC | 
[V:1] g4d3{/^f//}e/d/ | 
[V:2] G,B,GB, G,B,GB, | 
[V:1] .d'2.c'2.b2.a2 | 
[V:2] G,A,^FA, G,CFC | 
[V:1] g2 z2 {/d//} d'3(3c'/b/a/ | 
[V:2] G,B,GB, G,C^FC | 
[V:1] g2 z2 {/d//} d'3(3c'/b/a/ | 
[V:2] G,B,GB, G,C^FC | 
[V:1] g2 D>G B2[C2A2] | 
[V:2] [B,4G4][K:clef=bass]z2 D,2 | 
[V:1] [C4A4][B,2G2] z2 :|]|:  
[V:2] G,2D,2G,,2 z2 :|]|:  
[V:1] d2B2.B2.!trill!B2 {/AB} | 
[V:2] D4D2D2 & B,2G,2.G,2.G,2 | 
[V:1] d2c zA4 | 
[V:2] D4D4 & B,2A, z^F,4 | 
[V:1] c2B z d2c z | 
[V:2] D4D4 & A,2G, z B,2A, z | 
[V:1] e4d2 z2 | 
[V:2] D6z2 & C4B,2 x2 | 
[V:1] d2G2G2!trill!^G2 {/^^FG} | 
[V:2] z4[B,,4D,4] | 
[V:1] A2c ze4 | 
[V:2] [C,4E,4][^C,4G,4] | 
[V:1] d2=G z c2^F z | 
[V:2] B,4A,4 & D,8 | 
[V:1] A4G2 z2 | 
[V:2] [G,4-=C4][G,2B,2] z2 | 
[V:1] d2B2B2!trill!B2 {/AB} | 
[V:2] B,DG,D G,D^G,D | 
[V:1] d2c zA4 | 
[V:2] A,D=G,D ^F,DD,D[K:clef=treble] | 
[V:1] c2B z d2c z | 
[V:2] G,GB,G A,GCG | 
[V:1] e4d2 z2 | 
[V:2] CGEG B,GDG | 
[V:1] d2c z e2d z | 
[V:2] A,GCG B,GDG | 
[V:1] =f4e2 z2 | 
[V:2] DG=FG CGEG | 
[V:1] e2d z f2e z | 
[V:2] B,GDG CGEG | 
[V:1] g4f2 z2 | 
[V:2] EG^FG DGFG | 
[V:1] e3f/g/ f2.e2 | 
[V:2] CG^FG B,GCG | 
[V:1] d4z2 g2 | 
[V:2] G,GB,G G,GB,G | 
[V:1] f2_e2 z2 c2 | 
[V:2] G,GCG G,G_EG | 
[V:1] B2d2 z2 g2 | 
[V:2] G,GDG G,GB,G | 
[V:1] z2 f_e z2 dc | 
[V:2] G,GCG G,G_EG | 
[V:1] B2d2 z g^fg | 
[V:2] G,GDG G,GB,G | 
[V:1] z _ede z cBc | 
[V:2] _A,GCG A,^FCF | 
[V:1] B2d z B2d z | 
[V:2] [G,2G2] z2 [G,2G2] z2 | 
[V:1] B2d zz4 | 
[V:2] [G,2G2] z2z4 | 
[V:1] d2=f z d2f z | 
[V:2] [G,2B,2D2=F2] z2 [G,2B,2D2F2] z2 | 
[V:1] d2f zz4 | 
[V:2] [G,2B,2D2F2] z2z4 | 
[V:1] =e3f/g/ c2.[B2d2] | 
[V:2] [K:clef=bass]z2 C,2E,2G,2 | 
[V:1] d2fex4 & B2c2[B4d4] | 
[V:2] C2C,2 G,2G,,2 | 
[V:1] e3f/g/ c2.[B2d2] | 
[V:2] z2 C,2E,2G,2 | 
[V:1] [d2f2][c2e2][B4d4] | 
[V:2] C2C,2 G,2G,,2 | 
[V:1] f3g/f/ e2.e2 | 
[V:2] A,2C2G,2C2 | 
[V:1] a3b/c'/ g2.g2 | 
[V:2] F,2C2E,2C2[K:clef=treble] | 
[V:1] gffd feec | 
[V:2] z2 [B,2G2] z2 [C2G2][K:clef=bass] | 
[V:1] ^cded =cBAG | 
[V:2] [G,4B,4]z4 | 
[V:1] e3f/g/ c2.[B2d2] | 
[V:2] C,,E,,G,,C, E,,E,G,,G, | 
[V:1] d2fex4 & B2c2[B4d4] | 
[V:2] C,E,G,C G,,B,,D,G, | 
[V:1] e3f/g/ c2.[B2d2] | 
[V:2] C,,E,,G,,C, E,,E,G,,G, | 
[V:1] [d2f2][c2e2][B4d4] | 
[V:2] C,E,G,C G,,B,,D,G, | 
[V:1] f3g/f/ e2.e2 | 
[V:2] A,CA,C G,CG,C | 
[V:1] a3b/c'/ g2.g2 | 
[V:2] F,CF,C E,CE,C | 
[V:1] ^gafd c2B2 | 
[V:2] z2 D2 E2D2 & x2 F,2G,4 | 
[V:1] (3cGe (3cge (3c'ba (3gfe | 
[V:2] [C4E4]z4 | 
[V:1] (3^cdf (3afd (3ge=c (3fdB | 
[V:2] z2 [A,2D2] [C2E2][D2F2] & x2 F,2G,4 | 
[V:1] (3cGe (3cge (3c'ba (3gfe | 
[V:2] [C4E4]z4 | 
[V:1] (3^cdf (3afd (3ge=c (3fdB | 
[V:2] z2 [A,2D2] [C2E2]D2 & x2 F,2G,4 | 
[V:1] c2.G2C4 | 
[V:2] [C2E2].G,2[C,,4C,4][K:clef=treble] | 
[V:1] e6{/f/e/d/e/} gf | 
[V:2] CG^FG CGDG | 
[V:1] edcB c2.^c2 | 
[V:2] EG=FG EG^A,G | 
[V:1] .d2.^d2.e2 gf | 
[V:2] B,GB,G CGDG | 
[V:1] e3f/e/ =d2 z2 | 
[V:2] CG^FG B,GFG | 
[V:1] f6{/g/f/e/f/} ag | 
[V:2] B,G^FG B,GCG | 
[V:1] fedc B.c.d.e | 
[V:2] DGEG =FGDG | 
[V:1] .f.g.a.b .c'.d'.e'.f' | 
[V:2] B,GDG B,GG,G | 
[V:1] ^d'4e'2 z2 | 
[V:2] CGEG CGEG[K:clef=bass] | 
[V:1] _B2-(3Beg (3_bge (3geB | 
[V:2] (3C,E,G,C2z4 | 
[V:1] A2-(3Acf (3afc (3fcA | 
[V:2] (3F,,A,,C,F,2z4 | 
[V:1] G2-(3G^ce (3gec (3ecG | 
[V:2] (3A,,^C,E,A,2z4 | 
[V:1] ^F2-(3FAd (3^fdA (3dAF | 
[V:2] (3D,^F,A,D2z4 | 
[V:1] =F2-(3FBd (3=fdB (3dBF | 
[V:2] (3B,,D,G,B,2z4 | 
[V:1] E2-(3EGc (3ecG (3cGE | 
[V:2] (3C,E,G,C2z4 | 
[V:1] (3z DA (3dAD (3z DA (3cAD | 
[V:2] [F,2A,2] z2 [^F,2A,2] z2[K:clef=treble] | 
[V:1] B4z .g.a.b | 
[V:2] G,G^FG FG=FG | 
[V:1] c'4-c'bag | 
[V:2] EGCG EGCG | 
[V:1] gfed .g2.f2 | 
[V:2] DGCG B,GG,G | 
[V:1] ^d2e2z4 | 
[V:2] CG^FG FGAG | 
[V:1] z2 z .g ._a.=a._b.=b | 
[V:2] =FGEG FGCG | 
[V:1] c'4-c'bag | 
[V:2] EGCG EGCG | 
[V:1] gfed .g2.f2 | 
[V:2] DGCG B,GG,G | 
[V:1] .e2 z2 !trill!a>bc'.c' | 
[V:2] CGEG CAFA | 
[V:1] c'2 z2 !trill!d'>e'f'.f' | 
[V:2] CGEG _B,FDF | 
[V:1] f'2 z2 !trill!f>ga.a | 
[V:2] A,FCF[K:clef=bass] F,DA,D | 
[V:1] ag.f.e .d2.g2 | 
[V:2] G,ECE G,F=B,F | 
[V:1] f2e2 !trill!A>Bc.c | 
[V:2] C,G,E,G, C,A,F,A, | 
[V:1] c2 z2 !trill!d>ef.f | 
[V:2] C,G,E,G, _B,,F,D,F, | 
[V:1] f2 z2 !trill!f>gaa | 
[V:2] A,,F,C,F, F,,D,A,,D, | 
[V:1] ag.f.e ed.c.B | 
[V:2] G,,E,C,E, G,,F,D,F, | 
[V:1] g2-(3gec (3BdG (3ceG | 
[V:2] z2 [C,2E,2][D,2F,2][E,2G,2] | 
[V:1] d2-(3dBG (3^FGD (3=FGD | 
[V:2] z2 [G,,2B,,2][A,,2C,2][B,,2D,2] | 
[V:1] g2-(3gec (3BdG (3ceG | 
[V:2] z2 [C,2E,2][D,2F,2][E,2G,2] | 
[V:1] d2-(3dBG (3^FGD (3=FGD | 
[V:2] z2 [G,,2B,,2][A,,2C,2][B,,2D,2] | 
[V:1] (3ECE (3GEG (3cGc (3ece | 
[V:2] C,4z4 | 
[V:1] (3geg (3_bge (3c_BG (3cB^G | 
[V:2] G,6_B,2 & C,8 | 
[V:1] Aa^ga gaga | 
[V:2] [F,4A,4C4]z4 | 
[V:1] c6ed & x6=B2 | 
[V:2] z2 _E2=E2=F2 & x2 ^F,2G,4 | 
[V:1] (3cGc (3ece (3geg (3c'd'c' | 
[V:2] [C4E4]z4 | 
[V:1] (3_bag (3fed (3cdc (3_BA^G | 
[V:2] G,6_B,2 & C,8 | 
[V:1] Aa^ga gaga | 
[V:2] [F,4A,4C4]z4 | 
[V:1] z c'=bc' bc'bc' | 
[V:2] [^F,4_E4]z4[K:clef=treble] | 
[V:1] c'g.g.g ag.f.e | 
[V:2] G,=ECE G,ECE | 
[V:1] e4!trill!d3c/d/ | 
[V:2] G,GCG G,FB,F[K:clef=bass] | 
[V:1] c2 z2 G3{/B}A/G/ | 
[V:2] C,E,CE, C,E,CE, | 
[V:1] .g2.f2.e2.d2 | 
[V:2] C,D,B,D, C,F,B,F, | 
[V:1] c4G3{/B/}A/G/ | 
[V:2] C,E,CE, C,E,CE, | 
[V:1] .g2.f2.e2.d2 | 
[V:2] C,D,B,D, C,F,B,F, | 
[V:1] c2 z2 {/G//} g3(3f/e/d/ | 
[V:2] C,E,CE, C,F,B,F, | 
[V:1] c2 z2 {/G//} g3a/b/ | 
[V:2] C,E,CE, C,F,B,F, | 
[V:1] c'2 z2 (3gag (3fed | 
[V:2] C,E,CE, C,F,B,F, | 
[V:1] c2 z2 (3^fg^g (3a_b=b | 
[V:2] C,E,CE, C,F,B,F, | 
[V:1] c'2 G>c e2[F2d2] | 
[V:2] E,4x4 & C,4z2 ^G,2 | 
[V:1] [F4d4][E2c2] z2 | 
[V:2] A,6z2 | 
[V:1] [A2d2f2a2] z2 [D2F2G2B2] z2 | 
[V:2] [F,,2F,2] z2 [=G,,2=G,2] z2 | 
[V:1] [C2E2G2c2] z2z4 :|]  
[V:2] [C,,2E,,2G,,2C,2] z2z4 :|]  


